X:1
T:Rat
T:Ratatouille: Le Festin
T:arr. by Mario Velazquez
T:Michael Giacchino
%%score 1 2 3
L:1/8
Q:1/4=70
M:3/4
K:Eb
V:1 treble nm="Flute" snm="Fl."
V:2 treble transpose=-2 nm="B♭ Clarinet" snm="B♭ Cl."
V:3 bass nm="Trombone" snm="Tbn."
V:1
 B4 G2 | e4 (3gfe | f4 z2 | B2 c2 e2 | c6- | c2 z3[Q:1/4=130] b |S g2 f2 e2 | .g z f3 e | %8
 g2 f2 e2 | B4 z f | b2 f2 e2 | b z d3 d | .b2 f3 d | e4 f>b | g2 f3 e | g2 f3 a | b2 g2 b2 | %17
 c'4 z2 | a>g f z e z | B z d3 c' | d'2 d'2 b2 | c'4 z g | a2 e3 c!dacoda! | d4 g>g | e4 z2 | z6 | %26
 z6 | z4 z b | g2 f2 e2 | g z f3 e | g2 f2 e2 | B6 | b2 f2 e2 | b z d3 d | .b2 f3 d | e4 f>b | %36
 g4 fe | g4 z a | b2 g3 b | c'4 z g | a z f z e z | B z d3 c' | d' z d' z b z | c'4 z g | a2 e3 c | %45
 d6 | f4 z ^f | g4 f'2 | e'4 b2 | b>a b3 ^c' | c'4 z g | a>g a3 f | b6 | a3/2g3/2a3/2c'3/2 | d'6 | %55
 b>b b2 b>b | a g3 z f | g2 f3 e | e4 z e | e2 c2 e2 | e2 c2 _d2 | f4- fb!D.S.! ||O d4 g2 | %63
 b>a g2 g2 | b>a g2 g2 | b>a g2 g2 | !fermata!g6 |] %67
V:2
[K:F] c4 A2 | d4 (3fed | e4 z2 | e2 f2 a2 | d6- | d2 z3 E | A2 G2 F2 | .A z G3 F | A2 G2 F2 | %9
 C4 z G | c2 G2 F2 | c z E3 E | .c2 G3 E | F4 G>c | A2 G3 F | A2 G3 B | c2 A2 c2 | d4 z2 | %18
 B>A G z F z | C z E3 d | e2 e2 c2 | d4 z A | B2 F3 D | E4 A>A | F4 z2 | z6 | z6 | z4 z C | %28
 A2 G2 F2 | A z G3 F | A2 G2 F2 | C6 | c2 G2 F2 | c z E3 E | .c2 G3 E | F4 G>c | A4 GF | A4 z B | %38
 c2 A3 c | d4 z A | B z G z F z | C z E3 d | e2 e2 c2 | d4 z A | B2 F3 D | E6 | G4 z ^G | A4 g2 | %48
 f4 c2 | c>=B c3 ^d | d4 z A | B>A B3 G | c6 | B3/2A3/2B3/2d3/2 | e6 | c>c c2 c>c | B A3 z G | %57
 A2 G3 F | F4 z F | F2 D2 F2 | F2 D2 _E2 | E4- ED || E4 A2 | c'>b a2 a2 | c'>b a2 a2 | c'>b a2 a2 | %66
 !fermata!a6 |] %67
V:3
 z6 | z6 | z6 | z6 | z6 | z6 |!mp! .E,2 E,4 | .C,2 F,4 | .F,2 E,4 | B,,2 C,2 D,2 | .F,2 C,4 | %11
 .B,,2 D,4 | .F,2 D,4 | E,4 D,2 | .C,2 E,4 | .B,,2 D,4 | B,6 | A,4 z2 | .F,2 F,4 | .D,2 D,4 | %20
 .G,2 G,4 | E,4 z2 | .F,2 .C,2 .C,2 | B,,4 z2 |!f! E,2 G,2 F,2 | G,4- G,F,/_F,/ | E,6 | %27
 .G, z G,3 z |!mp! .E,2 E,4 | .C,2 G,4 | .F,2 F,4 | B,,2 C,2 D,2 | .F,2 C,4 | .B,,2 D,4 | %34
 .F,2 D,4 | E,4 D,2 | .C,2 E,4 | .B,,2 D,4 | B,6 | G,4 z2 | .F,2 F,4 | .D,2 D,4 | .G,2 G,4 | %43
 E,4 z2 | .F,2 .C,2 .C,2 |!<(! B,,4 z2 | D,2 E,2 F,2!<)! |!mf! G,>F, E,2 E,2 | G,>F, E,2 E,2 | %49
 G,>F, E,2 E,2 | F,6 | E,>D, C,2 C,2 | E,>D, C,2 C,2 | E,>D, C,2 C,2 | B,,2 C,2 D,2 | %55
!mp! G,>F, E,2 E,2 | G,>F, E,2 E,2 |!mp! G,>F, E,2 E,2 | F,6 |!mp! G,>F, E,2 E,2 | %60
!mp! G,>F, E,2 E,2 | F,6 || B,,4 z2 |!mp! G,>F, E,2 E,2 | G,>F, E,2 E,2 |!mp! G,>F, E,2 E,2 | %66
 !fermata!E,6 |] %67

